X:1
T:Title
%%score [ ( 1 2 ) ( 3 4 ) ]
L:1/8
Q:1/4=120
M:3/4
K:Bb
V:1 treble nm="Midi_74" snm=" "
V:2 treble 
V:3 bass nm="Midi_74"
V:4 bass 
V:1
 B2 | B3 A B2 | c4"^O Jesulein süß" A2 | B2 A2 G2 | F4 d2 |"^arr. J.S. Bach""^(1685-1750)" c4 c2 | %6
w: O|Je- su- lein|süß! o|Je- su- lein|mild! Deins|Va- ters|
w: O|Je- su- lein|süß! o|Je- su- lein|mild! Mit|Freu- den|
w: O|Je- su- lein|süß! o|Je- su- lein|mild! Du|bist der|
 (B2 B2) c2 | (F2 G2) A2 | B4 d2 | e4 e2 | c4 c2 | d4 d2 | B4 B2 | c4 c2 | A4 A2 | B4 B2 | G4 c2 | %17
w: Willn * hast|du * er-|füllt; bist|kom- men|aus dem|Him- mel-|reich, uns|ar- men|Men- schen|wor- den|gleich, o|
w: hast du die|Welt * er-|füllt, du|kommst her-|ab vom|Him- mels-|saal, und|tröst'st uns|in dem|Jam- mer-|\-tal, o|
w: Lieb * ein|E * ben-|bild, zünd|an in|uns der|Lie- be|Flamm, dass|wir dich|lie- ben|all- zu-|\-samm', o|
 F2 G2 A2 | B4 d2 | c3 B A2 | B4 |] %21
w: Je- su- lein|süß! o|Je- su- lein|mild!|
w: Je- su- lein|süß! o|Je- su- lein|mild!|
w: Je- su- lein|süß! o|Je- su- lein|mild!|
V:2
 D2 | D=E ^F2 G2 | (G!courtesy!=F =E2) F2 | F3 D =E2 | C4 F2 | (F3 !courtesy!_E) (DA) | (A3 G) F2 | %7
 F4 E2 | D4 F2 | (EF G2) G2 | F4 (FG) | (_A2 BA) (GF) | G4 G2 | (G2 =EF) G2 | (G2 F=E) F2 | %15
 (B,CD!courtesy!_E) F2 | (F2 E2) E2 | (DC) B,2 C2 | F4 F2 | (GF) E3 E | D4 |] %21
V:3
 B,2 | B,2 D2 D2 | C4 C2 | D3 D (G,C) | A,4 B,2 | (B,2 A,2) D2 | (D2 E3) E | D4 C2 | B,4 B,2 | %9
 (B,3 C) B,2 | (B,2 A,B,) C2 | B,4 _A,2 | G,4 D2 | C4 C2 | C4 C2 | F,4 B,2 | %16
"^This edition produced by Andrew Sims 2018" B,4 A,2 | (B,A,) G,2 F,2 | F,4 B,2 | (B,2 E)D C2 | %20
 B,4 |] %21
V:4
 (B,A,) | G,2 D,2 (G,F,) | (=E,D, C,2) F,2 | D,2 B,,2 C,2 | F,4 B,,2 | (F,=E, F,2) ^F,2 | %6
 ((G,^F,) G,2) A,2 | (B,2 E,2) F,2 | B,,4 (B,A,) | (G,2 E,2) C,2 | F,4 (A,G,) | (F,2 D,2) B,,2 | %12
 E,4 (G,F,) | (=E,2 C,2) E,2 | F,4 (F,!courtesy!_E,) | (D,2 B,,2) D,2 | E,4 C,2 | %17
 D,2 (E,D,) (E,C,) | D,2 (E,D,C,B,,) | E,2 C,2 F,2 | B,,4 |] %21

